app/assets/images/heroicons/solid/arrow-turn-down-right.svg

<svg width="24" height="24" viewBox="0 0 24 24" fill="none" xmlns="http://www.w3.org/2000/svg">
<path fill-rule="evenodd" clip-rule="evenodd" d="M3.73927 3.74902C4.15349 3.74902 4.48928 4.08483 4.48928 4.49906V15H18.4282L15.9585 12.53C15.6656 12.2371 15.6657 11.7622 15.9586 11.4693C16.2515 11.1764 16.7264 11.1764 17.0193 11.4693L20.7691 15.2197C21.062 15.5126 21.062 15.9875 20.7691 16.2804L17.0193 20.0307C16.7264 20.3236 16.2515 20.3237 15.9586 20.0308C15.6657 19.7379 15.6656 19.263 15.9585 18.9701L18.4282 16.5001H3.73927C3.32505 16.5001 2.98926 16.1643 2.98926 15.75V4.49906C2.98926 4.08483 3.32505 3.74902 3.73927 3.74902Z" fill="black"/>
</svg>

<svg xmlns="http://www.w3.org/2000/svg" viewBox="0 0 24 24" fill="currentColor" aria-hidden="true" data-slot="icon">
  <path fill-rule="evenodd" d="M3.74 3.749a.75.75 0 0 1 .75.75V15h13.938l-2.47-2.47a.75.75 0 0 1 1.061-1.06l3.75 3.75a.75.75 0 0 1 0 1.06l-3.75 3.75a.75.75 0 0 1-1.06-1.06l2.47-2.47H3.738a.75.75 0 0 1-.75-.75V4.5a.75.75 0 0 1 .75-.751Z" clip-rule="evenodd"/>
</svg>
